X:210
T:Tom Ward's Downfall                                                                               
R:reel                                                                                              
Z:id:hn-reel-436                                                                                    
M:C|                                                                                                
K:G                                                                                                 
BG G2 GEDG|EDEG AEGE|DEGA B3d|ed d2 egdc|                                                           
BG G2 GEDG|EDEG AEGE|DEGA B3d|1 egdc BGGA:|2 egdc BAGB||                                            
|:dggf gedg|eaab a2ga|bg g2 agef|gedc BGGB|                                                         
dggf gedg|eaab a2ga|bg g2 agef|1 gedc BAGB:|2 gedc BGGA||
